images/elem_fire_or_ice.svg

<svg height="560" viewBox="0 0 560 560" width="560" xmlns="http://www.w3.org/2000/svg"><path d="m544 280c0-145.8-118.2-264-264-264v45.24c3.87 0 7 3.13 7 7l.76 34.28 37.96-16.69c3.54-1.56 7.67.05 9.22 3.59 1.56 3.54-.05 7.67-3.59 9.23l-43.26 19.01.79 35.73 54.7-25.5c3.5-1.63 7.67-.11 9.3 3.39 1.63 3.51.11 7.67-3.39 9.3l-60.28 28.1 1.27 57.72 30.68 17.71 50.57-27.69-5.8-66.19c-.34-3.86 2.51-7.25 6.36-7.59 3.87-.35 7.25 2.51 7.58 6.36l5.27 60.07 31.34-17.16-5.17-46.94c-.42-3.85 2.36-7.3 6.2-7.72 3.84-.43 7.3 2.34 7.72 6.19l4.53 41.2 30.06-16.47c3.35-1.93 7.63-.78 9.57 2.56 1.93 3.35.78 7.63-2.57 9.57l-29.33 17.77 33.46 24.55c3.11 2.29 3.79 6.67 1.5 9.79-1.37 1.87-3.5 2.86-5.65 2.86-1.44 0-2.89-.44-4.14-1.36l-38.13-27.99-30.58 18.53 49.5 34.67c3.17 2.22 3.93 6.58 1.72 9.75-1.37 1.94-3.54 2.98-5.74 2.98-1.39 0-2.79-.41-4.01-1.26l-54.56-38.22-49.13 29.77v35.87l49.13 29.77 54.56-38.21c3.16-2.22 7.53-1.45 9.75 1.71 2.21 3.17 1.45 7.54-1.72 9.75l-49.5 34.68 30.58 18.52 38.13-27.99c3.12-2.28 7.5-1.61 9.79 1.51 2.29 3.11 1.61 7.49-1.5 9.78l-33.46 24.55 29.33 17.78c3.35 1.93 4.5 6.21 2.57 9.56-1.3 2.24-3.65 3.5-6.07 3.5-1.19 0-2.39-.3-3.5-.94l-30.06-16.46-4.53 41.19c-.39 3.59-3.43 6.24-6.95 6.24-.25 0-.51-.01-.77-.04-3.84-.42-6.62-3.88-6.2-7.72l5.16-46.95-31.33-17.15-5.27 60.06c-.32 3.64-3.37 6.39-6.96 6.39-.21 0-.41-.01-.62-.03-3.85-.34-6.7-3.73-6.36-7.58l5.8-66.19-50.58-27.69-30.8 17.78-1.22 57.46 60.36 28.13c3.5 1.63 5.02 5.79 3.39 9.3-1.19 2.55-3.71 4.04-6.35 4.04-.99 0-2-.21-2.95-.65l-54.77-25.53-.76 35.74 43.3 19.03c3.54 1.56 5.15 5.69 3.59 9.23-1.15 2.62-3.72 4.18-6.41 4.18-.94 0-1.9-.19-2.81-.59l-37.99-16.7-.73 34.29c0 3.87-3.13 7-7 7v45.24c145.8 0 264-118.2 264-264z" fill="#40cef1"/><path d="m317.73 258.29-37.73-21.78v87.13l37.73-21.78z" fill="#40cef1"/><path d="m560 280c0 37.79-7.4 74.46-22.01 108.99-14.1 33.35-34.29 63.29-60 89s-55.65 45.9-89 60c-34.53 14.6-71.2 22.01-108.99 22.01-37.79 0-74.46-7.41-108.99-22.01-33.35-14.1-63.29-34.29-89-60s-45.9-55.65-60-89c-14.61-34.53-22.01-71.2-22.01-108.99s7.4-74.46 22.01-108.99c14.1-33.35 34.29-63.29 60-89s55.65-45.9 89-60c34.53-14.61 71.2-22.01 108.99-22.01 37.79 0 74.46 7.4 108.99 22.01 33.35 14.1 63.29 34.29 89 60s45.9 55.65 60 89c14.61 34.53 22.01 71.2 22.01 108.99zm-16 0c0-145.8-118.2-264-264-264-145.8 0-264 118.2-264 264s118.2 264 264 264c145.8 0 264-118.2 264-264z" fill="#fff" fill-rule="evenodd"/><path d="m280 418.41v-5.93c-16.66 10.93-31.44 20.31-36.94 36.07-5.22 14.98-4.23 34.45 10.52 44.9-45.71-5.26-81.52-29.4-109.52-71.4-38.95-58.42-20.5-154.5 9.5-178-4.5 56.5 30.56 117.58 82 82.5 44-30-22-88.5 0-170.5 9.68-36.06 26.79-59.06 44.44-72.74v-67.31c-145.8 0-264 118.2-264 264s118.2 264 264 264v-113z" fill="#f6501e"/><path d="m472.45 327.75c2.29 3.11 1.61 7.49-1.5 9.78l-33.46 24.55 29.33 17.78c3.35 1.93 4.5 6.21 2.57 9.56-1.3 2.24-3.65 3.5-6.07 3.5-1.19 0-2.39-.3-3.5-.94l-30.06-16.46-4.53 41.19c-.39 3.59-3.43 6.24-6.95 6.24-.25 0-.51-.01-.77-.04-3.84-.42-6.62-3.88-6.2-7.72l5.16-46.95-31.33-17.15-5.27 60.06c-.32 3.64-3.37 6.39-6.96 6.39-.21 0-.41-.01-.62-.03-3.85-.34-6.7-3.73-6.36-7.58l5.8-66.19-50.58-27.69-30.8 17.78-1.22 57.46 60.36 28.13c3.5 1.63 5.02 5.79 3.39 9.3-1.19 2.55-3.71 4.04-6.35 4.04-.99 0-2-.21-2.95-.65l-54.77-25.53-.76 35.74 43.3 19.03c3.54 1.56 5.15 5.69 3.59 9.23-1.15 2.62-3.72 4.18-6.41 4.18-.94 0-1.9-.19-2.81-.59l-37.99-16.7-.73 34.29c0 3.87-3.13 7-7 7v-86.28c-16.66 10.93-31.44 20.31-36.94 36.07-5.22 14.98-4.23 34.45 10.52 44.9-45.71-5.26-81.52-29.4-109.52-71.4-38.95-58.42-20.5-154.5 9.5-178-4.5 56.5 30.56 117.58 82 82.5 44-30-22-88.5 0-170.5 9.68-36.07 26.79-59.06 44.44-72.74v-22.07c3.87 0 7 3.13 7 7l.76 34.28 37.96-16.69c3.54-1.56 7.67.05 9.22 3.59 1.56 3.54-.05 7.67-3.59 9.23l-43.26 19.01.79 35.73 54.7-25.5c3.5-1.63 7.67-.11 9.3 3.39 1.63 3.51.11 7.67-3.39 9.3l-60.28 28.1 1.27 57.72 30.68 17.71 50.57-27.69-5.8-66.19c-.34-3.86 2.51-7.25 6.36-7.59 3.87-.35 7.25 2.51 7.58 6.36l5.27 60.07 31.34-17.16-5.17-46.94c-.42-3.85 2.36-7.3 6.2-7.72 3.84-.43 7.3 2.34 7.72 6.19l4.53 41.2 30.06-16.47c3.35-1.93 7.63-.78 9.57 2.56 1.93 3.35.78 7.63-2.57 9.57l-29.33 17.77 33.46 24.55c3.11 2.29 3.79 6.67 1.5 9.79-1.37 1.87-3.5 2.86-5.65 2.86-1.44 0-2.89-.44-4.14-1.36l-38.13-27.99-30.58 18.53 49.5 34.67c3.17 2.22 3.93 6.58 1.72 9.75-1.37 1.94-3.54 2.98-5.74 2.98-1.39 0-2.79-.41-4.01-1.26l-54.56-38.22-49.13 29.77v35.87l49.13 29.77 54.56-38.21c3.16-2.22 7.53-1.45 9.75 1.71 2.21 3.17 1.45 7.54-1.72 9.75l-49.5 34.68 30.58 18.52 38.13-27.99c3.12-2.28 7.5-1.61 9.79 1.51zm-154.72-69.46-37.73-21.78v87.13l37.73-21.78z" fill="#fff" fill-rule="evenodd"/></svg>

<svg version="1.2" baseProfile="tiny-ps" xmlns="http://www.w3.org/2000/svg" viewBox="0 0 560 560" width="560" height="560">
	<title>Layer 1</title>
	<style>
		tspan { white-space:pre }
		.shp0 { fill: #40cef1 } 
		.shp1 { fill: #ffffff } 
		.shp2 { fill: #f6501e } 
	</style>
	<g id="Layer 1">
		<g id="&lt;Group&gt;">
			<g id="&lt;Group&gt;">
				<g id="&lt;Group&gt;">
					<path id="&lt;Path&gt;" class="shp0" d="M544 280C544 134.2 425.8 16 280 16L280 61.24C283.87 61.24 287 64.37 287 68.24L287.76 102.52L325.72 85.83C329.26 84.27 333.39 85.88 334.94 89.42C336.5 92.96 334.89 97.09 331.35 98.65L288.09 117.66L288.88 153.39L343.58 127.89C347.08 126.26 351.25 127.78 352.88 131.28C354.51 134.79 352.99 138.95 349.49 140.58L289.21 168.68L290.48 226.4L321.16 244.11L371.73 216.42L365.93 150.23C365.59 146.37 368.44 142.98 372.29 142.64C376.16 142.29 379.54 145.15 379.87 149L385.14 209.07L416.48 191.91L411.31 144.97C410.89 141.12 413.67 137.67 417.51 137.25C421.35 136.82 424.81 139.59 425.23 143.44L429.76 184.64L459.82 168.17C463.17 166.24 467.45 167.39 469.39 170.73C471.32 174.08 470.17 178.36 466.82 180.3L437.49 198.07L470.95 222.62C474.06 224.91 474.74 229.29 472.45 232.41C471.08 234.28 468.95 235.27 466.8 235.27C465.36 235.27 463.91 234.83 462.66 233.91L424.53 205.92L393.95 224.45L443.45 259.12C446.62 261.34 447.38 265.7 445.17 268.87C443.8 270.81 441.63 271.85 439.43 271.85C438.04 271.85 436.64 271.44 435.42 270.59L380.86 232.37L331.73 262.14L331.73 298.01L380.86 327.78L435.42 289.57C438.58 287.35 442.95 288.12 445.17 291.28C447.38 294.45 446.62 298.82 443.45 301.03L393.95 335.71L424.53 354.23L462.66 326.24C465.78 323.96 470.16 324.63 472.45 327.75C474.74 330.86 474.06 335.24 470.95 337.53L437.49 362.08L466.82 379.86C470.17 381.79 471.32 386.07 469.39 389.42C468.09 391.66 465.74 392.92 463.32 392.92C462.13 392.92 460.93 392.62 459.82 391.98L429.76 375.52L425.23 416.71C424.84 420.3 421.8 422.95 418.28 422.95C418.03 422.95 417.77 422.94 417.51 422.91C413.67 422.49 410.89 419.03 411.31 415.19L416.47 368.24L385.14 351.09L379.87 411.15C379.55 414.79 376.5 417.54 372.91 417.54C372.7 417.54 372.5 417.53 372.29 417.51C368.44 417.17 365.59 413.78 365.93 409.93L371.73 343.74L321.15 316.05L290.35 333.83L289.13 391.29L349.49 419.42C352.99 421.05 354.51 425.21 352.88 428.72C351.69 431.27 349.17 432.76 346.53 432.76C345.54 432.76 344.53 432.55 343.58 432.11L288.81 406.58L288.05 442.32L331.35 461.35C334.89 462.91 336.5 467.04 334.94 470.58C333.79 473.2 331.22 474.76 328.53 474.76C327.59 474.76 326.63 474.57 325.72 474.17L287.73 457.47L287 491.76C287 495.63 283.87 498.76 280 498.76L280 544C425.8 544 544 425.8 544 280Z" />
					<path id="&lt;Path&gt;" class="shp0" d="M317.73 258.29L280 236.51L280 323.64L317.73 301.86L317.73 258.29Z" />
					<path id="&lt;Compound Path&gt;" fill-rule="evenodd" class="shp1" d="M560 280C560 317.79 552.6 354.46 537.99 388.99C523.89 422.34 503.7 452.28 477.99 477.99C452.28 503.7 422.34 523.89 388.99 537.99C354.46 552.59 317.79 560 280 560C280 560 280 560 280 560C242.21 560 205.54 552.59 171.01 537.99C137.66 523.89 107.72 503.7 82.01 477.99C56.3 452.28 36.11 422.34 22.01 388.99C7.4 354.46 0 317.79 0 280C0 242.21 7.4 205.54 22.01 171.01C36.11 137.66 56.3 107.72 82.01 82.01C107.72 56.3 137.66 36.11 171.01 22.01C205.54 7.4 242.21 0 280 0C280 0 280 0 280 0C317.79 0 354.46 7.4 388.99 22.01C422.34 36.11 452.28 56.3 477.99 82.01C503.7 107.72 523.89 137.66 537.99 171.01C552.6 205.54 560 242.21 560 280ZM544 280C544 134.2 425.8 16 280 16C280 16 280 16 280 16C134.2 16 16 134.2 16 280C16 425.8 134.2 544 280 544C280 544 280 544 280 544C425.8 544 544 425.8 544 280Z" />
				</g>
			</g>
			<g id="&lt;Group&gt;">
				<g id="&lt;Group&gt;">
					<path id="&lt;Path&gt;" class="shp2" d="M280 418.41L280 412.48C263.34 423.41 248.56 432.79 243.06 448.55C237.84 463.53 238.83 483 253.58 493.45C207.87 488.19 172.06 464.05 144.06 422.05C105.11 363.63 123.56 267.55 153.56 244.05C149.06 300.55 184.12 361.63 235.56 326.55C279.56 296.55 213.56 238.05 235.56 156.05C245.24 119.99 262.35 96.99 280 83.31L280 16C280 16 280 16 280 16C134.2 16 16 134.2 16 280C16 425.8 134.2 544 280 544C280 544 280 544 280 544L280 431L280 418.41Z" />
					<path id="&lt;Compound Path&gt;" fill-rule="evenodd" class="shp1" d="M472.45 327.75C474.74 330.86 474.06 335.24 470.95 337.53L437.49 362.08L466.82 379.86C470.17 381.79 471.32 386.07 469.39 389.42C468.09 391.66 465.74 392.92 463.32 392.92C462.13 392.92 460.93 392.62 459.82 391.98L429.76 375.52L425.23 416.71C424.84 420.3 421.8 422.95 418.28 422.95C418.03 422.95 417.77 422.94 417.51 422.91C413.67 422.49 410.89 419.03 411.31 415.19L416.47 368.24L385.14 351.09L379.87 411.15C379.55 414.79 376.5 417.54 372.91 417.54C372.7 417.54 372.5 417.53 372.29 417.51C368.44 417.17 365.59 413.78 365.93 409.93L371.73 343.74L321.15 316.05L290.35 333.83L289.13 391.29L349.49 419.42C352.99 421.05 354.51 425.21 352.88 428.72C351.69 431.27 349.17 432.76 346.53 432.76C345.54 432.76 344.53 432.55 343.58 432.11L288.81 406.58L288.05 442.32L331.35 461.35C334.89 462.91 336.5 467.04 334.94 470.58C333.79 473.2 331.22 474.76 328.53 474.76C327.59 474.76 326.63 474.57 325.72 474.17L287.73 457.47L287 491.76C287 495.63 283.87 498.76 280 498.76L280 412.48C263.34 423.41 248.56 432.79 243.06 448.55C237.84 463.53 238.83 483 253.58 493.45C207.87 488.19 172.06 464.05 144.06 422.05C105.11 363.63 123.56 267.55 153.56 244.05C149.06 300.55 184.12 361.63 235.56 326.55C279.56 296.55 213.56 238.05 235.56 156.05C245.24 119.98 262.35 96.99 280 83.31L280 61.24C283.87 61.24 287 64.37 287 68.24L287.76 102.52L325.72 85.83C329.26 84.27 333.39 85.88 334.94 89.42C336.5 92.96 334.89 97.09 331.35 98.65L288.09 117.66L288.88 153.39L343.58 127.89C347.08 126.26 351.25 127.78 352.88 131.28C354.51 134.79 352.99 138.95 349.49 140.58L289.21 168.68L290.48 226.4L321.16 244.11L371.73 216.42L365.93 150.23C365.59 146.37 368.44 142.98 372.29 142.64C376.16 142.29 379.54 145.15 379.87 149L385.14 209.07L416.48 191.91L411.31 144.97C410.89 141.12 413.67 137.67 417.51 137.25C421.35 136.82 424.81 139.59 425.23 143.44L429.76 184.64L459.82 168.17C463.17 166.24 467.45 167.39 469.39 170.73C471.32 174.08 470.17 178.36 466.82 180.3L437.49 198.07L470.95 222.62C474.06 224.91 474.74 229.29 472.45 232.41C471.08 234.28 468.95 235.27 466.8 235.27C465.36 235.27 463.91 234.83 462.66 233.91L424.53 205.92L393.95 224.45L443.45 259.12C446.62 261.34 447.38 265.7 445.17 268.87C443.8 270.81 441.63 271.85 439.43 271.85C438.04 271.85 436.64 271.44 435.42 270.59L380.86 232.37L331.73 262.14L331.73 298.01L380.86 327.78L435.42 289.57C438.58 287.35 442.95 288.12 445.17 291.28C447.38 294.45 446.62 298.82 443.45 301.03L393.95 335.71L424.53 354.23L462.66 326.24C465.78 323.96 470.16 324.63 472.45 327.75ZM317.73 258.29L280 236.51L280 323.64L317.73 301.86L317.73 258.29Z" />
				</g>
			</g>
		</g>
	</g>
</svg>
